48x48/apps/calibre-ebook-edit.svg

<svg viewBox="0 0 48 48"><defs><linearGradient id="linearGradient3764" x1="1" x2="47" gradientUnits="userSpaceOnUse" gradientTransform="matrix(0,-1,1,0,-1.5e-6,47.999998)"><stop stop-color="#205414" stop-opacity="1"/><stop offset="1" stop-color="#266318" stop-opacity="1"/></linearGradient><clipPath id="clipPath-024263226"><g transform="translate(0,-1004.3622)"><path d="m -24 13 c 0 1.105 -0.672 2 -1.5 2 -0.828 0 -1.5 -0.895 -1.5 -2 0 -1.105 0.672 -2 1.5 -2 0.828 0 1.5 0.895 1.5 2 z" transform="matrix(15.333333,0,0,11.5,414.99999,878.8622)" fill="#1890d0"/></g></clipPath><clipPath id="clipPath-030565325"><g transform="translate(0,-1004.3622)"><path d="m -24 13 c 0 1.105 -0.672 2 -1.5 2 -0.828 0 -1.5 -0.895 -1.5 -2 0 -1.105 0.672 -2 1.5 -2 0.828 0 1.5 0.895 1.5 2 z" transform="matrix(15.333333,0,0,11.5,414.99999,878.8622)" fill="#1890d0"/></g></clipPath></defs><g><path d="m 36.31 5 c 5.859 4.062 9.688 10.831 9.688 18.5 c 0 12.426 -10.07 22.5 -22.5 22.5 c -7.669 0 -14.438 -3.828 -18.5 -9.688 c 1.037 1.822 2.306 3.499 3.781 4.969 c 4.085 3.712 9.514 5.969 15.469 5.969 c 12.703 0 23 -10.298 23 -23 c 0 -5.954 -2.256 -11.384 -5.969 -15.469 c -1.469 -1.475 -3.147 -2.744 -4.969 -3.781 z m 4.969 3.781 c 3.854 4.113 6.219 9.637 6.219 15.719 c 0 12.703 -10.297 23 -23 23 c -6.081 0 -11.606 -2.364 -15.719 -6.219 c 4.16 4.144 9.883 6.719 16.219 6.719 c 12.703 0 23 -10.298 23 -23 c 0 -6.335 -2.575 -12.06 -6.719 -16.219 z" opacity="0.05"/><path d="m 41.28 8.781 c 3.712 4.085 5.969 9.514 5.969 15.469 c 0 12.703 -10.297 23 -23 23 c -5.954 0 -11.384 -2.256 -15.469 -5.969 c 4.113 3.854 9.637 6.219 15.719 6.219 c 12.703 0 23 -10.298 23 -23 c 0 -6.081 -2.364 -11.606 -6.219 -15.719 z" opacity="0.1"/><path d="m 31.25 2.375 c 8.615 3.154 14.75 11.417 14.75 21.13 c 0 12.426 -10.07 22.5 -22.5 22.5 c -9.708 0 -17.971 -6.135 -21.12 -14.75 a 23 23 0 0 0 44.875 -7 a 23 23 0 0 0 -16 -21.875 z" opacity="0.2"/></g><g><path d="m 24 1 c 12.703 0 23 10.297 23 23 c 0 12.703 -10.297 23 -23 23 -12.703 0 -23 -10.297 -23 -23 0 -12.703 10.297 -23 23 -23 z" fill="url(#linearGradient3764)" fill-opacity="1"/></g><g/><g><g clip-path="url(#clipPath-024263226)"><g transform="translate(1,1)"><g opacity="0.1"><!-- color: #266318 --><g><path d="m 25.996 37 l 0 -18 l -4 0 l 0 18 m -1 -19 l -9 -5 l 0 17 l 9 6 m 15 -6 l 0 -17 l -9 5 l 0 18 m 7 -23 c -4 0 -6 0.52 -10 4 c -4 -3.395 -6 -4 -10 -4 l 8 5 l 4 0 m 8 -5" fill="#000" stroke="none" fill-rule="nonzero" fill-opacity="1"/><path d="m 10.475 10.32 l -1.583 -1.583 c -0.363 0.141 -0.788 0.069 -1.08 -0.223 c -0.292 -0.292 -0.369 -0.724 -0.229 -1.085 l 0.606 0.605 c 0.299 0.301 0.871 -0.271 0.571 -0.571 l -0.606 -0.605 c 0.116 -0.044 0.236 -0.067 0.354 -0.069 c 0.267 -0.003 0.53 0.09 0.732 0.291 c 0.291 0.292 0.366 0.724 0.225 1.085 l 1.583 1.583 c 0.249 0.357 -0.236 0.818 -0.571 0.571 m 0.001 0.001" transform="matrix(3.543307,0,0,3.543307,0,0)" stroke-opacity="1" fill="#000" fill-rule="nonzero" stroke="#256110" stroke-linejoin="miter" fill-opacity="1" stroke-linecap="butt" stroke-width="0.254" stroke-miterlimit="4"/></g></g></g></g></g><g><g clip-path="url(#clipPath-030565325)"><!-- color: #266318 --><g><path d="m 25.996 37 l 0 -18 l -4 0 l 0 18 m -1 -19 l -9 -5 l 0 17 l 9 6 m 15 -6 l 0 -17 l -9 5 l 0 18 m 7 -23 c -4 0 -6 0.52 -10 4 c -4 -3.395 -6 -4 -10 -4 l 8 5 l 4 0 m 8 -5" fill="#f9f9f9" stroke="none" fill-rule="nonzero" fill-opacity="1"/><path d="m 10.475 10.32 l -1.583 -1.583 c -0.363 0.141 -0.788 0.069 -1.08 -0.223 c -0.292 -0.292 -0.369 -0.724 -0.229 -1.085 l 0.606 0.605 c 0.299 0.301 0.871 -0.271 0.571 -0.571 l -0.606 -0.605 c 0.116 -0.044 0.236 -0.067 0.354 -0.069 c 0.267 -0.003 0.53 0.09 0.732 0.291 c 0.291 0.292 0.366 0.724 0.225 1.085 l 1.583 1.583 c 0.249 0.357 -0.236 0.818 -0.571 0.571 m 0.001 0.001" transform="matrix(3.543307,0,0,3.543307,0,0)" stroke-opacity="1" fill="#fff" fill-rule="nonzero" stroke="#256110" stroke-linejoin="miter" fill-opacity="1" stroke-linecap="butt" stroke-width="0.254" stroke-miterlimit="4"/></g></g></g><g><path d="m 40.03 7.531 c 3.712 4.084 5.969 9.514 5.969 15.469 0 12.703 -10.297 23 -23 23 c -5.954 0 -11.384 -2.256 -15.469 -5.969 4.178 4.291 10.01 6.969 16.469 6.969 c 12.703 0 23 -10.298 23 -23 0 -6.462 -2.677 -12.291 -6.969 -16.469 z" opacity="0.1"/></g></svg>

<?xml version="1.0" encoding="UTF-8" standalone="no"?>
<svg
   xmlns:dc="http://purl.org/dc/elements/1.1/"
   xmlns:cc="http://creativecommons.org/ns#"
   xmlns:rdf="http://www.w3.org/1999/02/22-rdf-syntax-ns#"
   xmlns:svg="http://www.w3.org/2000/svg"
   xmlns="http://www.w3.org/2000/svg"
   xmlns:sodipodi="http://sodipodi.sourceforge.net/DTD/sodipodi-0.dtd"
   xmlns:inkscape="http://www.inkscape.org/namespaces/inkscape"
   viewBox="0 0 48 48"
   id="svg2"
   version="1.1"
   inkscape:version="0.48.4 r9939"
   width="100%"
   height="100%"
   sodipodi:docname="calibre-ebook-edit.svg">
  <metadata
     id="metadata65">
    <rdf:RDF>
      <cc:Work
         rdf:about="">
        <dc:format>image/svg+xml</dc:format>
        <dc:type
           rdf:resource="http://purl.org/dc/dcmitype/StillImage" />
      </cc:Work>
    </rdf:RDF>
  </metadata>
  <sodipodi:namedview
     pagecolor="#ffffff"
     bordercolor="#666666"
     borderopacity="1"
     objecttolerance="10"
     gridtolerance="10"
     guidetolerance="10"
     inkscape:pageopacity="0"
     inkscape:pageshadow="2"
     inkscape:window-width="1440"
     inkscape:window-height="834"
     id="namedview63"
     showgrid="false"
     inkscape:zoom="4.9166667"
     inkscape:cx="-26.847458"
     inkscape:cy="24"
     inkscape:window-x="0"
     inkscape:window-y="27"
     inkscape:window-maximized="1"
     inkscape:current-layer="svg2" />
  <defs
     id="defs4">
    <linearGradient
       id="linearGradient3764"
       x1="1"
       x2="47"
       gradientUnits="userSpaceOnUse"
       gradientTransform="matrix(0,-1,1,0,-1.5e-6,47.999998)">
      <stop
         stop-color="#205414"
         stop-opacity="1"
         id="stop7" />
      <stop
         offset="1"
         stop-color="#266318"
         stop-opacity="1"
         id="stop9" />
    </linearGradient>
    <clipPath
       id="clipPath-024263226">
      <g
         transform="translate(0,-1004.3622)"
         id="g12">
        <path
           d="m -24 13 c 0 1.105 -0.672 2 -1.5 2 -0.828 0 -1.5 -0.895 -1.5 -2 0 -1.105 0.672 -2 1.5 -2 0.828 0 1.5 0.895 1.5 2 z"
           transform="matrix(15.333333,0,0,11.5,414.99999,878.8622)"
           fill="#1890d0"
           id="path14" />
      </g>
    </clipPath>
    <clipPath
       id="clipPath-030565325">
      <g
         transform="translate(0,-1004.3622)"
         id="g17">
        <path
           d="m -24 13 c 0 1.105 -0.672 2 -1.5 2 -0.828 0 -1.5 -0.895 -1.5 -2 0 -1.105 0.672 -2 1.5 -2 0.828 0 1.5 0.895 1.5 2 z"
           transform="matrix(15.333333,0,0,11.5,414.99999,878.8622)"
           fill="#1890d0"
           id="path19" />
      </g>
    </clipPath>
    <linearGradient
       id="linearGradient3764-0"
       x1="1"
       x2="47"
       gradientUnits="userSpaceOnUse"
       gradientTransform="matrix(0,-1,1,0,-1.5e-6,47.999998)">
      <stop
         stop-color="#b5945b"
         stop-opacity="1"
         id="stop7-1" />
      <stop
         offset="1"
         stop-color="#bb9e69"
         stop-opacity="1"
         id="stop9-5" />
    </linearGradient>
    <clipPath
       id="clipPath-899834956">
      <g
         transform="translate(0,-1004.3622)"
         id="g12-1">
        <path
           d="m -24 13 c 0 1.105 -0.672 2 -1.5 2 -0.828 0 -1.5 -0.895 -1.5 -2 0 -1.105 0.672 -2 1.5 -2 0.828 0 1.5 0.895 1.5 2 z"
           transform="matrix(15.333333,0,0,11.5,414.99999,878.8622)"
           fill="#1890d0"
           id="path14-6" />
      </g>
    </clipPath>
    <clipPath
       id="clipPath-909443126">
      <g
         transform="translate(0,-1004.3622)"
         id="g17-4">
        <path
           d="m -24 13 c 0 1.105 -0.672 2 -1.5 2 -0.828 0 -1.5 -0.895 -1.5 -2 0 -1.105 0.672 -2 1.5 -2 0.828 0 1.5 0.895 1.5 2 z"
           transform="matrix(15.333333,0,0,11.5,414.99999,878.8622)"
           fill="#1890d0"
           id="path19-4" />
      </g>
    </clipPath>
    <clipPath
       id="clipPath-909443126-7">
      <g
         transform="translate(0,-1004.3622)"
         id="g17-2">
        <path
           style="fill:#1890d0"
           inkscape:connector-curvature="0"
           d="m -24,13 c 0,1.105 -0.672,2 -1.5,2 -0.828,0 -1.5,-0.895 -1.5,-2 0,-1.105 0.672,-2 1.5,-2 0.828,0 1.5,0.895 1.5,2 z"
           transform="matrix(15.333333,0,0,11.5,414.99999,878.8622)"
           id="path19-3" />
      </g>
    </clipPath>
    <linearGradient
       id="linearGradient3759">
      <stop
         id="stop3761"
         offset="0"
         style="stop-color:#a75e15;stop-opacity:1;" />
      <stop
         id="stop3763"
         offset="1"
         style="stop-color:#ffffff;stop-opacity:0;" />
    </linearGradient>
    <linearGradient
       id="linearGradient3777">
      <stop
         id="stop3779"
         offset="0"
         style="stop-color:#e0dd00;stop-opacity:1;" />
      <stop
         id="stop3781"
         offset="1"
         style="stop-color:#000000;stop-opacity:0;" />
    </linearGradient>
    <clipPath
       id="clipPath-030565325-6">
      <g
         transform="translate(0,-1004.3622)"
         id="g17-7">
        <path
           style="fill:#1890d0"
           inkscape:connector-curvature="0"
           d="m -24,13 c 0,1.105 -0.672,2 -1.5,2 -0.828,0 -1.5,-0.895 -1.5,-2 0,-1.105 0.672,-2 1.5,-2 0.828,0 1.5,0.895 1.5,2 z"
           transform="matrix(15.333333,0,0,11.5,414.99999,878.8622)"
           id="path19-2" />
      </g>
    </clipPath>
  </defs>
  <g
     id="g33" />
  <g
     id="g3089">
    <g
       inkscape:label="shadows"
       id="layer2">
      <rect
         ry="13.03658"
         rx="13.03658"
         y="1"
         x="1"
         height="46"
         width="46"
         id="rect3007"
         style="opacity:0.1;fill:#000000;fill-opacity:1;fill-rule:nonzero;stroke:none" />
      <rect
         style="opacity:0.1;fill:#000000;fill-opacity:1;fill-rule:nonzero;stroke:none"
         id="rect3011"
         width="47"
         height="47"
         x="0.5"
         y="0.5"
         rx="13.319984"
         ry="13.319984" />
      <rect
         style="opacity:0.1;fill:#000000;fill-opacity:1;fill-rule:nonzero;stroke:none"
         id="rect3013"
         width="46.5"
         height="46.5"
         x="0.75"
         y="0.75"
         rx="13.178282"
         ry="13.178282" />
    </g>
    <g
       style="display:inline"
       inkscape:label="background-color"
       id="layer1">
      <rect
         transform="matrix(0,-1,1,0,0,0)"
         ry="12.753176"
         rx="12.753176"
         y="1.5"
         x="-46.5"
         height="45"
         width="45"
         id="rect2988"
         style="fill:#205414;fill-opacity:1;fill-rule:nonzero;stroke:none" />
    </g>
  </g>
  <g
     transform="translate(1.5400296,-1.1302741)"
     id="g49-9">
    <g
       clip-path="url(#clipPath-030565325-6)"
       id="g51-9">
      <!-- color: #266318 -->
      <g
         id="g53-7">
        <path
           style="fill:#f9f9f9;fill-opacity:1;fill-rule:nonzero;stroke:none"
           inkscape:connector-curvature="0"
           d="m 25.996,37 0,-18 -4,0 0,18 m -1,-19 -9,-5 0,17 9,6 m 15,-6 0,-17 -9,5 0,18 m 7,-23 c -4,0 -6,0.52 -10,4 -4,-3.395 -6,-4 -10,-4 l 8,5 4,0 m 8,-5"
           id="path55-6" />
        <path
           style="fill:#ffffff;fill-opacity:1;fill-rule:nonzero;stroke:#256110;stroke-width:0.25400001;stroke-linecap:butt;stroke-linejoin:miter;stroke-miterlimit:4;stroke-opacity:1"
           inkscape:connector-curvature="0"
           d="M 10.475,10.32 8.892,8.737 C 8.529,8.878 8.104,8.806 7.812,8.514 7.52,8.222 7.443,7.79 7.583,7.429 L 8.189,8.034 C 8.488,8.335 9.06,7.763 8.76,7.463 L 8.154,6.858 C 8.27,6.814 8.39,6.791 8.508,6.789 8.775,6.786 9.038,6.879 9.24,7.08 9.531,7.372 9.606,7.804 9.465,8.165 l 1.583,1.583 c 0.249,0.357 -0.236,0.818 -0.571,0.571 m 10e-4,10e-4"
           transform="scale(3.543307,3.543307)"
           stroke-miterlimit="4"
           id="path57-3" />
      </g>
    </g>
  </g>
</svg>
